img/logos/component.svg

<?xml version="1.0" encoding="UTF-8" standalone="no"?>
<svg width="256px" height="257px" viewBox="0 0 256 257" version="1.1" xmlns="http://www.w3.org/2000/svg" xmlns:xlink="http://www.w3.org/1999/xlink" preserveAspectRatio="xMinYMin meet">
	<g>
		<g>
			<path d="M214.570715,131.720728 C214.570715,149.203237 209.384009,165.456165 200.552253,179.125102 L230.062178,205.364468 C246.221483,183.943558 255.920811,157.373391 255.920811,128.468894 C255.920811,99.7266773 246.327589,73.2875825 230.324322,51.9228465 L198.061885,80.7025128 C208.40409,95.0767421 214.570715,112.659115 214.570715,131.720728" fill="#7A797A"></path>
			<path d="M196.102046,185.360384 C180.086296,205.938688 155.151409,219.233134 127.05831,219.233134 C78.7239497,219.233134 39.5459048,180.048847 39.5459048,131.720728 C39.5459048,83.386368 78.7239497,44.208323 127.05831,44.208323 C153.584786,44.208323 177.302577,56.0547352 193.349534,74.6981669 L225.630696,45.9060175 C202.162566,18.1686857 167.141376,0.517656381 127.969573,0.517656381 C57.30304,0.517656381 0.0183344762,57.8023619 0.0183344762,128.468894 C0.0183344762,199.135427 57.30304,256.420133 127.969573,256.420133 C166.991579,256.420133 201.869214,238.900175 225.337344,211.356331 L196.102046,185.360384" fill="#343334"></path>
		</g>
		<path d="M162.491441,132.625749 C162.491441,152.2491 146.581797,168.158744 126.958446,168.158744 C107.328853,168.158744 91.4254507,152.2491 91.4254507,132.625749 C91.4254507,112.996157 107.328853,97.0927543 126.958446,97.0927543 C146.581797,97.0927543 162.491441,112.996157 162.491441,132.625749" fill="#474547"></path>
	</g>
</svg>

<svg width="256" height="257" viewBox="0 0 256 257" xmlns="http://www.w3.org/2000/svg" preserveAspectRatio="xMinYMin meet"><path d="M214.57 131.72c0 17.483-5.186 33.736-14.018 47.405l29.51 26.24c16.16-21.42 25.86-47.992 25.86-76.896 0-28.743-9.594-55.182-25.598-76.547l-32.262 28.78c10.342 14.374 16.51 31.956 16.51 51.018" fill="#7A797A"/><path d="M196.102 185.36c-16.016 20.58-40.95 33.873-69.044 33.873-48.334 0-87.512-39.184-87.512-87.512 0-48.334 39.178-87.512 87.512-87.512 26.527 0 50.245 11.847 66.292 30.49l32.28-28.792C202.164 18.17 167.14.518 127.97.518 57.303.518.018 57.802.018 128.468c0 70.667 57.285 127.952 127.952 127.952 39.022 0 73.9-17.52 97.367-45.064l-29.235-25.996" fill="#343334"/><path d="M162.49 132.626c0 19.623-15.908 35.533-35.532 35.533-19.63 0-35.533-15.91-35.533-35.534 0-19.63 15.904-35.533 35.533-35.533 19.624 0 35.533 15.903 35.533 35.533" fill="#474547"/></svg>
